src/assets/icons/back-to-screen.svg

<svg viewBox="0 0 32 32" fill="none" xmlns="http://www.w3.org/2000/svg">
<path d="M28 28H17C16.4697 27.9995 15.9613 27.7886 15.5864 27.4136C15.2114 27.0387 15.0005 26.5303 15 26V20C15.0005 19.4697 15.2114 18.9613 15.5864 18.5864C15.9613 18.2114 16.4697 18.0005 17 18H28C28.5302 18.0008 29.0384 18.2118 29.4133 18.5867C29.7882 18.9616 29.9992 19.4698 30 20V26C29.9992 26.5302 29.7882 27.0384 29.4133 27.4133C29.0384 27.7882 28.5302 27.9992 28 28ZM17 20V26H28.002L28 20H17Z" fill="currentColor"/>
<path d="M13 22H4C3.46973 21.9995 2.96133 21.7886 2.58637 21.4136C2.21141 21.0387 2.00053 20.5303 2 20V7C2.00053 6.46973 2.21141 5.96133 2.58637 5.58637C2.96133 5.21141 3.46973 5.00053 4 5H26C26.5303 5.00053 27.0387 5.21141 27.4136 5.58637C27.7886 5.96133 27.9995 6.46973 28 7V16H26V7H4V20H13V22Z" fill="currentColor"/>
<path d="M9 13.414V17H7V10H14V12H10.414L14.707 16.293L13.293 17.707L9 13.414Z" fill="currentColor"/>
</svg>

<svg xmlns="http://www.w3.org/2000/svg" fill="none" viewBox="0 0 32 32">
  <path fill="currentColor"
    d="M28 28H17a2 2 0 0 1-2-2v-6a2 2 0 0 1 2-2h11a2.003 2.003 0 0 1 2 2v6a2.003 2.003 0 0 1-2 2m-11-8v6h11.002L28 20z" />
  <path fill="currentColor"
    d="M13 22H4a2 2 0 0 1-2-2V7a2 2 0 0 1 2-2h22a2 2 0 0 1 2 2v9h-2V7H4v13h9z" />
  <path fill="currentColor" d="M9 13.414V17H7v-7h7v2h-3.586l4.293 4.293-1.414 1.414z" />
</svg>
